!!!OTL: Salue Regina uirginum
**kern
*staff1
=1-
*clefC4
*k[]
2.d\
4A\
4d\
4c\
2.F/
4c\
2d\
=2
1B-
1A
=3
2D/
2A\
2D/
2A\
=4
2.G/
4G/
2G/
2G/
=5
1D
1G
!!linebreak:original
=6
2d\
2A\
2d\
2.c\
4F/
2c\
2d\
2G/
=7
2A\
1.B-
4A\
4G/
1A
0D
==
*-
!!title: @{OTL}, @{GTL}, ed. @{ENC}
!!!pag:
!!!GTL: Hymnbook D
!!!EFL: 
!!!YEM: Creative Commons CC/BY/NC/SA 4.0
!!!ENC: Marcin Konik
!!!END: 2015-0m-dd
!!!EED: Marcin Konik
!!!EEV: 
!!!ONB: Encoded in vim by Marcin Konik
!!!CharacterEncoding: utf-8
!!!RDF**kern: l=long note in original notation
!!!RDF**kern: i=editorial accidental
!!muse2ps: z14jc180F
!!!COM: Anonim
!!!CDT: [?]
!!!TXO: Polish
!!!ODT: 
!!!GTL: Hymnbook D
!!!ARL: Opactwo św. Wojciecha, Staniątki 
!!!voices:	1
